!!!COM:	Bach, Johann Sebastian
!!!CDT:	1685/02/21/-1750/07/28/
!!!OTL@@DE:	Was mein Gott will, das g'scheh allzeit
!!!SCT:	BWV 244/25
!!!PC#:	115
!!!AGN:	chorale
**kern	**kern	**kern	**kern
*ICvox	*ICvox	*ICvox	*ICvox
*Ibass	*Itenor	*Ialto	*Isoprn
*I"Bass	*I"Tenor	*I"Alto	*I"Soprano
*>[A,A,B]	*>[A,A,B]	*>[A,A,B]	*>[A,A,B]
*>norep[A,B]	*>norep[A,B]	*>norep[A,B]	*>norep[A,B]
*>A	*>A	*>A	*>A
*clefF4	*clefGv2	*clefG2	*clefG2
*k[f#c#]	*k[f#c#]	*k[f#c#]	*k[f#c#]
*b:	*b:	*b:	*b:
*M4/4	*M4/4	*M4/4	*M4/4
*met(c)	*met(c)	*met(c)	*met(c)
*MM100	*MM100	*MM100	*MM100
4B	4B	4d	8f#L
.	.	.	8gJ
=1	=1	=1	=1
4F#	4A	4d	4a
4G	4G	4d	4b
8DL	8F#L	4d	4a
8E	8G	.	.
8F#	8A	8dL	4dd
8GJ	8BJ	8eJ	.
=2	=2	=2	=2
4A	4A	8f#L	4dd
.	.	8gJ	.
4AA	4e	4a	4cc#
4D;	4f#;	4a;	4dd;
4BB	8eL	4g#	4dd
.	8dJ	.	.
=3	=3	=3	=3
4AA	8eL	4a	4cc#
.	8f#J	.	.
8EL	4g	8gnXL	4b
8F#J	.	8aJ	.
8GL	4g	4b	4ee
8AJ	.	.	.
4B	4f#	4b	8ddL
.	.	.	8cc#J
=4	=4	=4	=4
4E	4g	4b	2cc#
4F#	8f#L	4a#	.
.	8eJ	.	.
4BB;	4d;	4f#;	4b;
=:|!	=:|!	=:|!	=:|!
*>B	*>B	*>B	*>B
8BL	8dL	4f#	4b
8AnXJ	8c#J	.	.
=5	=5	=5	=5
8G#L	4B	8eL	4b
8F#J	.	8f#J	.
4E	8eL	4g#	4b
.	8dJ	.	.
4E#	4c#	4g#	8cc#L
.	.	.	8bJ
8F#L	4c#	4f#	4a
8EJ	.	.	.
=6	=6	=6	=6
4D#	4B	4f#	4a
4E	8c#L	4e	4g#
.	8dJ	.	.
4AA;	4c#;	4e;	4a;
4DnX	4d	4f#	4a
=7	=7	=7	=7
4GG#	8dL	8f#L	4b
.	8c#J	8eJ	.
4AA#	8c#L	8eL	4cc#
.	8BJ	8dJ	.
4BB	8BL	4d	4dd
.	8A#XJ	.	.
4C#	8A#L	4e	4cc#
.	8G#XJ	.	.
=8	=8	=8	=8
4D	8F#L	4f#	2b
.	8BJ	.	.
4BB	8dL	8g#L	.
.	8G#J	8e#J	.
4F#;	4A#;	4f#;	4cc#;
4B	4d	4f#	8f#L
.	.	.	8gJ
=9	=9	=9	=9
4AnX	4c#	4f#	4a
4G#	8dL	8f#L	4b
.	8BJ	8e#J	.
4F#	4c#	4f#	4a
8BL	8dL	4f#	4dd
8AJ	8c#J	.	.
=10	=10	=10	=10
4G#	4B	4enX	4dd
4A	4A	8f#L	4cc#
.	.	8gnXJ	.
4D;	4A;	4f#;	4dd;
8F#L	8AL	4f#	4dd
8G#XJ	8BJ	.	.
=11	=11	=11	=11
4A	8c#L	8eL	4cc#
.	8d#J	8f#J	.
4G#	4e	8g#L	4b
.	.	8a#J	.
4G	8BL	4b	4ee
.	8c#J	.	.
4F#	4d	4b	8ddL
.	.	.	8cc#J
=12	=12	=12	=12
4E#	4G#	4b	2cc#
4F#	4c#	4a#	.
4BB;	4d#;	4f#;	4b;
==	==	==	==
*-	*-	*-	*-
!!!hum2abc: -Q ''
!!!title: @{PC#}. @{OTL@@DE}
!!!YOR1: 371 vierstimmige Choralges&auml;nge von Johann Sebastian Bach, 
!!!YOR2: 4th ed. by Alfred D&ouml;rffel (Leipzig: Breitkopf und H&auml;rtel, 
!!!YOR2: c.1875). 178 pp. Plate "V.A.10".  reprint: J.S. Bach, 371 Four-Part 
!!!YOR4: Chorales (New York: Associated Music Publishers, Inc., c.1940).
!!!SMS: B&H, 4th ed, Alfred D&ouml;rffel, c.1875, plate V.A.10
!!!EED:  Craig Stuart Sapp
!!!EEV:  2009/05/22
